resources/svg/regular/spreadsheet.svg

<svg xmlns="http://www.w3.org/2000/svg" fill="currentColor" stroke="none" viewBox="0 0 24 24"><path d="M21 5c0-1.103-.897-2-2-2H5c-1.103 0-2 .897-2 2v14c0 1.103.897 2 2 2h14c1.103 0 2-.897 2-2V5zM5 19V5h14l.002 14H5z"/><path d="M7 7h1.998v2H7zm4 0h6v2h-6zm-4 4h1.998v2H7zm4 0h6v2h-6zm-4 4h1.998v2H7zm4 0h6v2h-6z"/></svg>

<svg xmlns="http://www.w3.org/2000/svg" fill="currentColor" stroke="none" viewBox="0 0 24 24"><path d="M21,5c0-1.103-0.897-2-2-2H5C3.897,3,3,3.897,3,5v14c0,1.103,0.897,2,2,2h14c1.103,0,2-0.897,2-2V5z M5,19V5h14l0.002,14H5 z"/><path d="M7 7H8.998V9H7zM11 7H17V9H11zM7 11H8.998V13H7zM11 11H17V13H11zM7 15H8.998V17H7zM11 15H17V17H11z"/></svg>
